X:18649
T:Whelan's Fancy
S:John B. Walsh
I:speed 300
M:6/8
Z:Boston
Z:A rolling version of Morrison's
R:jig
K:EDor
|:~E3 BAF|FEB AFD|~E3 ~B3|dcB AFD|
~E3 BAF|FEB AFA|BdB BAB|dAG FED:|
|:~B3 ~e3|fed efe|~B3 g2 e|fed BAF|
~B3 e2 g|fed e2 f|gbg faf|edB AFD:|


